Newaita-dark/actions/32/view-media-lyrics.svg

<svg height="32" viewBox="0 0 32 32" width="32" xmlns="http://www.w3.org/2000/svg"><g fill="#e0e0e0"><path d="m27.746094 2.902344c-.046875.003906-.09375.003906-.140625.011718l-14.554688 1.984376c-.652343.089843-1.136719.648437-1.136719 1.304687v14.066406c-.945312-.527343-2.085937-.835937-3.3125-.835937-3.300781 0-5.957031 2.214844-5.957031 4.960937 0 2.75 2.65625 4.960938 5.957031 4.960938 3.296876 0 5.953126-2.210938 5.953126-4.960938 0-.074219-.003907-.152343-.007813-.226562v-16.816407l11.921875-1.625v9.910157c-.949219-.527344-2.085938-.832031-3.316406-.832031-2.890625 0-5.285156 1.699218-5.835938 3.96875h2.84375c.53125-.785157 1.667969-1.324219 2.992188-1.324219 1.324218 0 2.464844.539062 2.992187 1.324219h2.957031v-14.554688c0-.355469-.144531-.695312-.402343-.945312-.253907-.246094-.597657-.382813-.953125-.371094zm-19.144532 19.179687c1.832032 0 3.304688 1.03125 3.304688 2.3125 0 1.285157-1.472656 2.316407-3.304688 2.316407-1.835937 0-3.308593-1.03125-3.308593-2.316407 0-1.28125 1.472656-2.3125 3.308593-2.3125zm0 0"/><path d="m28.445312 8.976562-15.722656 1.859376.15625 1.3125 15.566406-1.835938zm0 0"/><path d="m20.507812 21.417969h7.9375c.367188 0 .660157.296875.660157.664062v1.320313c0 .367187-.292969.664062-.660157.664062h-7.9375c-.367187 0-.664062-.296875-.664062-.664062v-1.320313c0-.367187.296875-.664062.664062-.664062zm0 0"/><path d="m20.507812 26.710938h7.9375c.367188 0 .660157.296874.660157.660156v1.324218c0 .367188-.292969.660157-.660157.660157h-7.9375c-.367187 0-.664062-.292969-.664062-.660157v-1.324218c0-.363282.296875-.660156.664062-.660156zm0 0"/></g></svg>

<svg xmlns="http://www.w3.org/2000/svg" xmlns:xlink="http://www.w3.org/1999/xlink" width="32px" height="32px" viewBox="0 0 32 32" version="1.1">
<g id="surface1">
     <defs>
  <style id="current-color-scheme" type="text/css">
   .ColorScheme-Text { color:#eeeeee; } .ColorScheme-Highlight { color:#424242; }
  </style>
 </defs>
<path style="fill:currentColor" class="ColorScheme-Text" d="M 27.746094 2.902344 C 27.699219 2.90625 27.652344 2.90625 27.605469 2.914062 L 13.050781 4.898438 C 12.398438 4.988281 11.914062 5.546875 11.914062 6.203125 L 11.914062 20.269531 C 10.96875 19.742188 9.828125 19.433594 8.601562 19.433594 C 5.300781 19.433594 2.644531 21.648438 2.644531 24.394531 C 2.644531 27.144531 5.300781 29.355469 8.601562 29.355469 C 11.898438 29.355469 14.554688 27.144531 14.554688 24.394531 C 14.554688 24.320312 14.550781 24.242188 14.546875 24.167969 L 14.546875 7.351562 L 26.46875 5.726562 L 26.46875 15.636719 C 25.519531 15.109375 24.382812 14.804688 23.152344 14.804688 C 20.261719 14.804688 17.867188 16.503906 17.316406 18.773438 L 20.160156 18.773438 C 20.691406 17.988281 21.828125 17.449219 23.152344 17.449219 C 24.476562 17.449219 25.617188 17.988281 26.144531 18.773438 L 29.101562 18.773438 L 29.101562 4.21875 C 29.101562 3.863281 28.957031 3.523438 28.699219 3.273438 C 28.445312 3.027344 28.101562 2.890625 27.746094 2.902344 Z M 8.601562 22.082031 C 10.433594 22.082031 11.90625 23.113281 11.90625 24.394531 C 11.90625 25.679688 10.433594 26.710938 8.601562 26.710938 C 6.765625 26.710938 5.292969 25.679688 5.292969 24.394531 C 5.292969 23.113281 6.765625 22.082031 8.601562 22.082031 Z M 8.601562 22.082031 "/>
     <defs>
  <style id="current-color-scheme" type="text/css">
   .ColorScheme-Text { color:#eeeeee; } .ColorScheme-Highlight { color:#424242; }
  </style>
 </defs>
<path style="fill:currentColor" class="ColorScheme-Text" d="M 28.445312 8.976562 L 12.722656 10.835938 L 12.878906 12.148438 L 28.445312 10.3125 Z M 28.445312 8.976562 "/>
     <defs>
  <style id="current-color-scheme" type="text/css">
   .ColorScheme-Text { color:#eeeeee; } .ColorScheme-Highlight { color:#424242; }
  </style>
 </defs>
<path style="fill:currentColor" class="ColorScheme-Text" d="M 20.507812 21.417969 L 28.445312 21.417969 C 28.8125 21.417969 29.105469 21.714844 29.105469 22.082031 L 29.105469 23.402344 C 29.105469 23.769531 28.8125 24.066406 28.445312 24.066406 L 20.507812 24.066406 C 20.140625 24.066406 19.84375 23.769531 19.84375 23.402344 L 19.84375 22.082031 C 19.84375 21.714844 20.140625 21.417969 20.507812 21.417969 Z M 20.507812 21.417969 "/>
     <defs>
  <style id="current-color-scheme" type="text/css">
   .ColorScheme-Text { color:#eeeeee; } .ColorScheme-Highlight { color:#424242; }
  </style>
 </defs>
<path style="fill:currentColor" class="ColorScheme-Text" d="M 20.507812 26.710938 L 28.445312 26.710938 C 28.8125 26.710938 29.105469 27.007812 29.105469 27.371094 L 29.105469 28.695312 C 29.105469 29.0625 28.8125 29.355469 28.445312 29.355469 L 20.507812 29.355469 C 20.140625 29.355469 19.84375 29.0625 19.84375 28.695312 L 19.84375 27.371094 C 19.84375 27.007812 20.140625 26.710938 20.507812 26.710938 Z M 20.507812 26.710938 "/>
</g>
</svg>
